assets/images/_common/cloud-white.svg

<svg fill="none" height="55" viewBox="0 0 278 55" width="278" xmlns="http://www.w3.org/2000/svg"><path d="m277.996 9.20945c.026-5.08071-4.108-9.20945-9.216-9.20945h-215.1287c-5.0906 0-9.2168 4.10379-9.2168 9.16667 0 5.06283 4.1262 9.16663 9.2168 9.16663h14.0957c5.0905 0 9.2167 4.1038 9.2167 9.1667s-4.1262 9.1667-9.2167 9.1667h-58.53028c-5.09053 0-9.21672 4.1038-9.21672 9.1666 0 5.0629 4.12619 9.1667 9.21672 9.1667h215.08928c5.09 0 9.216-4.1038 9.216-9.1667 0-5.0628-4.126-9.1666-9.216-9.1666h-14.096c-5.091 0-9.217-4.1038-9.217-9.1667s4.126-9.1667 9.217-9.1667h58.573c5.073 0 9.192-4.0788 9.217-9.12385z" fill="#fff"/></svg>

<svg width="278" height="55" viewBox="0 0 278 55" fill="none" xmlns="http://www.w3.org/2000/svg">
<path d="M277.996 9.20945C278.022 4.12874 273.888 0 268.78 0H53.6513C48.5607 0 44.4345 4.10379 44.4345 9.16667C44.4345 14.2295 48.5607 18.3333 53.6513 18.3333H67.747C72.8375 18.3333 76.9637 22.4371 76.9637 27.5C76.9637 32.5629 72.8375 36.6667 67.747 36.6667H9.21672C4.12619 36.6667 0 40.7705 0 45.8333C0 50.8962 4.12619 55 9.21672 55H224.306C229.396 55 233.522 50.8962 233.522 45.8333C233.522 40.7705 229.396 36.6667 224.306 36.6667H210.21C205.119 36.6667 200.993 32.5629 200.993 27.5C200.993 22.4371 205.119 18.3333 210.21 18.3333H268.783C273.856 18.3333 277.975 14.2545 278 9.20945H277.996Z" fill="white"/>
</svg>
